X:1868
T:Bourrée (Les ventres noirs)
C:MCTB 2/46
M:3/8
L:1/16
K:C
c2|dedcBd|c3def|g2fgfe|dedec2|\
dedcBd|c3def|g2fgfe|d4:|
|:d2|dedcBd|c2dedc|BGAGBG|cGdGdG|\
dedcBd|c2dedc|BGAGBG|c4:|


